!!!COM: Carl Loewe				
!!!CNT: Deutscher				
!!!TXO: Deutsch				
!!!OTL: "Niemand hat's geseh'n"				
!!!LYR: Gruppe					 			
!!!OPS: Op. 9 				
!!!ONM: No. 4 			
!!!ENC: O'Neal Douglas 					
!!!YOR: Twelve Songs and Ballads Vol. 1 and 2				
!!!YOR: New York:Schirmer, 1903					
!!!ODT: 1837/					
!!NB: Vocal melody and text encoded.
**kern	**text
*staff1	*staff1
*clefG2	*
*k[b-]	*
*M2/4	*
*MM140	*
=0	=0
4r	.
{4cc	{Die
=1	=1
(16b-	Trepp'
16a)	|
(16g	hin-
16a)	|
(16cc	-un-
16b-)	|
(16a	-ter
16g)	ge-
=2	=2
(16b-	-schwu-
16a	|
16g	|
16f)	|
(16a	-gen
16g)	|
(16f	komm'
16e)	|
=3	=3
(16g	ich
16f)	|
(16e	in
16d)	|
8f	vol-
8Bn	-lem
=4	=4
4c}	Lauf,}
8r	.
{8c	{die
=5	=5
(16e	Trepp'
16d)	|
(16c	em-
16d)	|
(16f	-por-
16e)	|
(16d	-ge-
16e)	|
=6	=6
(16g	-sprun-
16f	|
16e	|
16f)	|
(16a	-gen
16g)	|
(16f	kommt
16g)	|
=7	=7
(16a	er
16g)	|
(16f	und
16e)	|
8d	fa2ngt
8bn	mich
=8	=8
4cc}	auf}
8r	.
{8cc	{Und
=9	=9
8cc	wo
8c	die
16c	Trep-
16c	-pe
8c	so
=10	=10
8d-	dun-
8c	-kel
8c	ist,
8cc	da
=11	=11
16cc	ha-
16c	-ben
8c	wir
8c	uns
8c	ge-
=12	=12
8d-	-herzt,
8c	ge-
8c}	-ku2sst,}
{8c	{viel-
=13	=13
4d-	-mal
8.c	uns
16c	ge-
=14	=14
4d-	-herzt,
8r	.
8dn	viel-
=15	=15
4e-	-mal
8.d	uns
16d	ge-
=16	=16
4e-	-ku2sst,
8r	.
8en	ge-
=17	=17
2f	-herzt,
=18	=18
4r	.
8r	.
8g	ge-
=19	=19
4.cc}	-ku2sst,}
{(16b-	{und
16a)	|
=20	=20
8a	nie-
8g	-mand
8f	hat's
8g	ge-
=21	=21
4.cc	-seh'n,
(16b-	und
16a)	|
=22	=22
8a	nie-
8g	-mand
8f	hat's
8g	ge-
=23	=23
4cc	-seh'n,
4dd	nein,
=24	=24
8c	nie-
8c	-mand
8d	hat's
8e	ge-
=25	=25
4f}	-seh'n.}
4r	.
=26	=26
2r	.
=27	=27
2r	.
=28	=28
2r	.
=29	=29
2r	.
=30	=30
2r	.
=31	=31
4r	.
{4cc	{Ich
=32	=32
(16b-	komm'
16a)	|
16g	in
16a	den
(16cc	Saal
16b-)	|
(16a	ge-
16g)	|
=33	=33
(16b-	-gan-
16a	|
16g	|
16f)	|
(16a	-gen,
16g)	|
(16f	da
16e)	|
=34	=34
(16g	wimm
16f)	|
16e	elt's
16d	von
8f	Ga2-
8Bn	-sten
=35	=35
4c}	bunt,}
8r	.
{8c	{wohl
=36	=36
(16e	glu2h-
16d)	|
(16c	-ten
16d)	|
(16f	mir
16e)	|
(16d	die
16e)	|
=37	=37
(16g	Wan-
16f	|
16e	|
16f)	|
(16a	-gen,
16g)	|
(16f	wohl
16g)	|
=38	=38
(16a	glu2h-
16g)	|
(16f	-te
16e)	|
8d	mir
8bn	der
=39	=39
4cc}	Mund.}
8r	.
{8cc	{Ich
=40	=40
8cc	meint',
8c	es
16c	sa2-
16c	-he
8c	mir's
=41	=41
8d-	je-
8c	-der
8c	an,
8cc	was
=42	=42
8cc	wir
8c	da
8c	mit
8c	ein-
=43	=43
16d-	-an-
16c	-der
8c	ge-
8c	-than,
8c	ich
=44	=44
4d-	meint',
4c	es
=45	=45
8d-	sa2-
8d-	-he
8r	.
8dn	mir's
=46	=46
4e-	je-
4d	-der
=47	=47
4.e-	an,
8en	es
=48	=48
8f	sa2-
8f	-he
8r	.
8f	mir's
=49	=49
4g	je-
4g	-der
=50	=50
4.cc}	an;}
{(16b-	{doch
16a)	|
=51	=51
8a	nie-
8g	-mand
8f	hat's
8g	ge-
=52	=52
4.cc	-seh'n,
(16b-	doch
16a)	|
=53	=53
8a	nie-
8g	-mand
8f	hat's
8g	ge-
=54	=54
4cc	-seh'n,
4dd	nein,
=55	=55
8c	nie-
8c	-mand
8d	hat's
8e	ge-
=56	=56
4f}	-seh'n.}
4r	.
=57	=57
2r	.
=58	=58
2r	.
=59	=59
2r	.
=60	=60
2r	.
=61	=61
2r	.
=62	=62
2r	.
=63	=63
4r	.
{4cc	{Ich
=64	=64
(16b-	musst'
16a)	|
(16g	hin-
16a)	|
(16cc	-aus
16b-)	|
16a	in
16g	den
=65	=65
(16b-	Gar-
16a	|
16g	|
16f)	|
(16a	-ten
16g)	|
(16f	und
16e)	|
=66	=66
(16g	woll-
16f)	|
16e	-te
16d	die
8f	Blu-
8Bn	-men
=67	=67
4c}	seh'n,}
8r	.
{8c	{ich
=68	=68
(16e	konnt'
16d)	|
(16c	es
16d)	|
(16f	nicht
16e)	|
(16d	er-
16e)	|
=69	=69
(16g	-war-
16f	|
16e	|
16f)	|
(16a	-ten
16g)	|
16f	in
16g	den
=70	=70
(16a	Gar-
16g)	|
16f	-ten
16e	hin-
8d	-aus
8bn	zu
=71	=71
4cc}	geh'n}
8r	.
{8cc	{Da
=72	=72
4cc	blu2h-
(16b-	-ten
16a)	|
(16g	die
16f)	|
=73	=73
(8f	Ro-
8e)	|
(8d	-sen
8c)	|
=74	=74
(4cc	u2-
16b-	|
16a)	|
(16g	-ber-
16f)	|
=75	=75
(4a	-all,
8g)	|
8g	da
=76	=76
(8a	san-
4cc)	-gen
8g	die
=77	=77
(8a	Vo2g-
4cc)	-lein
8g	mit
=78	=78
2a	lau-
=79	=79
2bn	-tem
=80	=80
4.cc}	Schall,}
{(16b-	{als
16a)	|
=81	=81
8a	ha2t-
8g	-ten
8f	sie's
8g	ge-
=82	=82
4.cc	-seh'n,
(16b-	als
16a)	|
=83	=83
8a	ha2t-
8g	-ten
8f	sie's
8g	ge-
=84	=84
4cc	-seh'n,
4dd	als
=85	=85
8c	ha2t-
8c	-ten
8d	sie's
8e	ge-
=86	=86
2f}	-seh'n.}
=87	=87
2r	.
=88	=88
2r	.
=89	=89
2r	.
=90	=90
2r	.
=91	=91
2r	.
=92	=92
2r	.
=93	=93
2r	.
==	==
*-	*-
